X:51
T:Away In A Manger
%%stretchlast false
M:3/4
L:1/4
K:F clef=C1
"^i"[F,c] [F,c]3/2 "^iv"[F,B]/ | "^I"[F,A] [F,A]3/2 "^ii"[F,G]/ | "^i"[F,F] "^iv"[B,,F] "^vii°"[B,,E] | "^IV"[B,,D] "^i"[F,C]2 | [F,C] "^V¹"[E,C]3/2 "^vii7"[E,D]/ | "^V¹"[E,C] [E,C] "^vii"[E,G] | "^V"[C,E] "^vi¹"[F,D] "^i"[F,C] | [F,F] "^I"[F,A]2 | "^i"[F,c] [F,c]3/2 "^iv"[F,B]/ | "^I"[F,A] [F,A]3/2 "^ii"[F,G]/ | "^i"[F,F] "^iv"[B,,F] "^vii°"[B,,E] | "^IV"[B,,D] "^i"[F,C]2 | [F,C] "^v7"[C,B]3/2 "^iii¹"[C,A]/ | "^v"[C,G] "^I"[F,A] "^ii"[F,G] | "^i"[F,F] "^ii¹"[B,,G] "^IV"[B,,D] | "^V"[C,E] "^i"[F,F]2 |]
